X: 1626
T: Easy Club Reel
R:reel
S:IrTrad, Henrik Norbeck, 5/97
D:Four Men and a Dog: Barking Mad
M:C|
L:1/8
K:A
~A3c BABd|cAAd eAce|~f3g afec|dBcA BdcB|
~A3c BABd|ceef eAce|~f3g afed|1 cdBc A3E:|2 cdBc A2ag||
|:f2af dfaf|e2ae ceae|f2af defg|afec BdcB|
~A3c BABd|ceef eAce|~f3g afed|1 cdBc A2ag:|2 cdBc A3E||
